!!!!SEGMENT: pl-sa--552-a-ix-32--028_anonim--menuetto.krn
!!!cenid: 18xx:539
!!!COM: Anonim
!!!COM-rismID: pe30004985
!!!CDT:
!!!CNT:
!!!OTL: Menuetto
!!!PDT:
!!!AGN: Secular; Minuet
!!!SMS-siglum: PL-SA
!!!SMS-shelfmark: 552/A IX 32
!!!SMS-shelfwork: 028 W
!!!SMS-variant:
!!!SMS-altvar:
!!!NIFC-rismSourceID: 1001069570
!!!NIFC-islandoraID:
!!!URL-pdf-islandora:
!!!URL-scan: https://bc.bdsandomierz.pl/dlibra/publication/1308/edition/1276/content @EN{Scan in the Sandomierz Diocese Digital Library} @PL{Skany w portalu Cyfrowa Biblioteka Diecezjalna w Sandomierzu}
!!!ONB-nifc: Str. 14, s. 2-3
!!!AIN: 2 empty
!!!key:
**kern	**kern
*part2	*part1
*staff2	*staff1
*Iempty	*Iempty
*I"	*I"
*I'keyb	*I'keyb
*clefF4	*clefG2
*k[b-]	*k[b-]
*F:	*F:
*M3/4	*M3/4
=1	=1
!	!LO:TX:a:t=P:problem= jedno metrum pomiędzy pięcioliniami z kreską ułamkową
!	!LO:TX:a:i:t=Menuetto
4FF/	4f/ 4a
4F\	16a/LL
.	16b-/
.	16a/
.	16b-/JJ
4F\	8a\L 8cc
.	8b-\J 8dd
=2	=2
4FF/	4a\ 4cc
4C\	4g\ 4b-
4F\	4f\ 4a
=3	=3
4FF/ 4F	8f/L
.	8a/
4FF/ 4F	8f/
.	8a/
4FF/ 4F	8f/
.	8a/J
=4	=4
4CC/	8a/L 8cc
.	8g/J 8b-
!	!LO:N:n=2:vis=4
4C/	2c/ 2g
4C/	.
=5	=5
4FF/	4f/ 4a
4F\	16a/LL
.	16b-/
.	16a/
.	16b-/JJ
4F\	8a\L 8cc
.	8b-\J 8dd
=6	=6
!	!LO:TX:a:t=P:4\right:problem
4FF/	4a\ 4cc
4C\	4g\ 4b-
4F\	4f\ 4a
=7	=7
4F\ 4A	16a\LL
.	16g\
.	16b-\
.	16g\JJ
4A\ 4c	4f/
4G\ 4A 4B-	4e/
!!LO:LB:g=original
=8	=8
4r	4.c/ 4.g
4C/	.
.	8a/
4FF/ 4F	4A/ 4f
!	!LO:TX:a:t=P:problem=kreska z obustronną repetycją
==	==
*-	*-
!!!system-decoration: [(s1,s2)]
!!!RDF**kern: > = above
!!!RDF**kern: < = below
!!!EED: Mateusz Mrugas
!!!EEV: 2020-12-13
!!!ENC: Marta Chmielewska
!!!END: 2020-06-18
!!!YEC: Copyright 2022 Narodowy Instytut Fryderyka Chopina (https://polishscores.org)
!!!YEM: Licence CC BY 4.0 (https://creativecommons.org/licenses/by/4.0)
